public/images/pages/filters/blur.svg

<svg fill="none" height="22" viewBox="0 0 22 22" width="22" xmlns="http://www.w3.org/2000/svg"><path d="m8.8 7.7c-.605 0-1.1.495-1.1 1.1s.495 1.1 1.1 1.1 1.1-.495 1.1-1.1-.495-1.1-1.1-1.1zm0 4.4c-.605 0-1.1.495-1.1 1.1s.495 1.1 1.1 1.1 1.1-.495 1.1-1.1-.495-1.1-1.1-1.1zm-3.3-3.85c-.3025 0-.55.2475-.55.55s.2475.55.55.55.55-.2475.55-.55-.2475-.55-.55-.55zm3.3 7.7c-.3025 0-.55.2475-.55.55s.2475.55.55.55.55-.2475.55-.55-.2475-.55-.55-.55zm-3.3-3.3c-.3025 0-.55.2475-.55.55s.2475.55.55.55.55-.2475.55-.55-.2475-.55-.55-.55zm3.3-6.6c.3025 0 .55-.2475.55-.55s-.2475-.55-.55-.55-.55.2475-.55.55.2475.55.55.55zm4.4 1.65c-.605 0-1.1.495-1.1 1.1s.495 1.1 1.1 1.1 1.1-.495 1.1-1.1-.495-1.1-1.1-1.1zm0-1.65c.3025 0 .55-.2475.55-.55s-.2475-.55-.55-.55-.55.2475-.55.55.2475.55.55.55zm3.3 6.6c-.3025 0-.55.2475-.55.55s.2475.55.55.55.55-.2475.55-.55-.2475-.55-.55-.55zm0-4.4c-.3025 0-.55.2475-.55.55s.2475.55.55.55.55-.2475.55-.55-.2475-.55-.55-.55zm-5.5-8.25c-6.0775 0-11 4.9225-11 11s4.9225 11 11 11 11-4.9225 11-11-4.9225-11-11-11zm0 19.8c-4.862 0-8.8-3.938-8.8-8.8s3.938-8.8 8.8-8.8 8.8 3.938 8.8 8.8-3.938 8.8-8.8 8.8zm2.2-3.85c-.3025 0-.55.2475-.55.55s.2475.55.55.55.55-.2475.55-.55-.2475-.55-.55-.55zm0-3.85c-.605 0-1.1.495-1.1 1.1s.495 1.1 1.1 1.1 1.1-.495 1.1-1.1-.495-1.1-1.1-1.1z" fill="#b4b4b4"/></svg>

<svg width="22" height="22" viewBox="0 0 22 22" fill="none" xmlns="http://www.w3.org/2000/svg">
<path d="M8.8 7.7C8.195 7.7 7.7 8.195 7.7 8.8C7.7 9.405 8.195 9.9 8.8 9.9C9.405 9.9 9.9 9.405 9.9 8.8C9.9 8.195 9.405 7.7 8.8 7.7ZM8.8 12.1C8.195 12.1 7.7 12.595 7.7 13.2C7.7 13.805 8.195 14.3 8.8 14.3C9.405 14.3 9.9 13.805 9.9 13.2C9.9 12.595 9.405 12.1 8.8 12.1ZM5.5 8.25C5.1975 8.25 4.95 8.4975 4.95 8.8C4.95 9.1025 5.1975 9.35 5.5 9.35C5.8025 9.35 6.05 9.1025 6.05 8.8C6.05 8.4975 5.8025 8.25 5.5 8.25ZM8.8 15.95C8.4975 15.95 8.25 16.1975 8.25 16.5C8.25 16.8025 8.4975 17.05 8.8 17.05C9.1025 17.05 9.35 16.8025 9.35 16.5C9.35 16.1975 9.1025 15.95 8.8 15.95ZM5.5 12.65C5.1975 12.65 4.95 12.8975 4.95 13.2C4.95 13.5025 5.1975 13.75 5.5 13.75C5.8025 13.75 6.05 13.5025 6.05 13.2C6.05 12.8975 5.8025 12.65 5.5 12.65ZM8.8 6.05C9.1025 6.05 9.35 5.8025 9.35 5.5C9.35 5.1975 9.1025 4.95 8.8 4.95C8.4975 4.95 8.25 5.1975 8.25 5.5C8.25 5.8025 8.4975 6.05 8.8 6.05ZM13.2 7.7C12.595 7.7 12.1 8.195 12.1 8.8C12.1 9.405 12.595 9.9 13.2 9.9C13.805 9.9 14.3 9.405 14.3 8.8C14.3 8.195 13.805 7.7 13.2 7.7ZM13.2 6.05C13.5025 6.05 13.75 5.8025 13.75 5.5C13.75 5.1975 13.5025 4.95 13.2 4.95C12.8975 4.95 12.65 5.1975 12.65 5.5C12.65 5.8025 12.8975 6.05 13.2 6.05ZM16.5 12.65C16.1975 12.65 15.95 12.8975 15.95 13.2C15.95 13.5025 16.1975 13.75 16.5 13.75C16.8025 13.75 17.05 13.5025 17.05 13.2C17.05 12.8975 16.8025 12.65 16.5 12.65ZM16.5 8.25C16.1975 8.25 15.95 8.4975 15.95 8.8C15.95 9.1025 16.1975 9.35 16.5 9.35C16.8025 9.35 17.05 9.1025 17.05 8.8C17.05 8.4975 16.8025 8.25 16.5 8.25ZM11 0C4.9225 0 0 4.9225 0 11C0 17.0775 4.9225 22 11 22C17.0775 22 22 17.0775 22 11C22 4.9225 17.0775 0 11 0ZM11 19.8C6.138 19.8 2.2 15.862 2.2 11C2.2 6.138 6.138 2.2 11 2.2C15.862 2.2 19.8 6.138 19.8 11C19.8 15.862 15.862 19.8 11 19.8ZM13.2 15.95C12.8975 15.95 12.65 16.1975 12.65 16.5C12.65 16.8025 12.8975 17.05 13.2 17.05C13.5025 17.05 13.75 16.8025 13.75 16.5C13.75 16.1975 13.5025 15.95 13.2 15.95ZM13.2 12.1C12.595 12.1 12.1 12.595 12.1 13.2C12.1 13.805 12.595 14.3 13.2 14.3C13.805 14.3 14.3 13.805 14.3 13.2C14.3 12.595 13.805 12.1 13.2 12.1Z" fill="#B4B4B4"/>
</svg>
